svg/u2653.svg

<svg viewBox="0 0 128 128" xmlns="http://www.w3.org/2000/svg">
  <circle cx="64" cy="64" r="60" fill="#C2185B"/>
  <circle cx="60.1" cy="63.1" r="56.1" fill="#EC407A"/>
  <path d="M24,29.7c4.5-7.1,14.1-13,24.1-14.8c2.5-0.4,5-0.6,7.1,0.2 c1.6,0.6,2.9,2.1,2,3.8c-0.7,1.4-2.6,2-4.1,2.5c-9.3,3-17.9,6.4-23.1,14.3c-2,3-4.9,14.4-8.6,12.3C17.5,45.7,18.3,38.5,24,29.7z" opacity="0.65" fill="#E380A1" enable-background="new "/>
  <path d="M96.6,60H86c-0.6,0-1.1-0.5-1-1.1c1.1-11.8,5.7-20,9.7-22.3c1.3-0.7,2.1-2.1,2.1-3.6 c-0.1-3-3.3-4.9-5.9-3.4c-7.3,4-12.8,15.5-13.9,29.5c-0.1,0.5-0.5,0.9-1,0.9H52c-0.5,0-1-0.4-1-0.9c-1-13.7-6.4-25-13.5-29.2 c-2.6-1.6-5.5-0.6-6.2,2.3c-0.4,1.8,0.4,3.6,1.9,4.4c4,2.2,8.7,10.5,9.8,22.3c0,0.6-0.4,1.1-1,1.1H31.4c-2.1,0-4,1.5-4.1,3.6 C27,66,28.9,68,31.2,68H42c0.6,0,1,0.5,1,1.1c-1.1,11.8-5.7,20-9.7,22.3c-1.3,0.7-2.1,2.1-2.1,3.6c0.1,3,3.3,4.8,5.9,3.4 c7.3-4.1,12.8-15.5,13.9-29.5c0-0.5,0.5-0.9,1-0.9h24c0.5,0,0.9,0.4,1,0.9c1,13.7,6.4,25,13.5,29.2c2.6,1.6,5.5,0.7,6.2-2.3 c0.4-1.8-0.4-3.6-1.9-4.4c-4-2.2-8.7-10.4-9.8-22.3c0-0.6,0.4-1.1,1-1.1h10.8c2.3,0,4.2-2,4-4.4C100.6,61.5,98.7,60,96.6,60z" fill="#FAFAFA"/>
  <path d="M24,29.7c4.5-7.1,14.1-13,24.1-14.8c2.5-0.4,5-0.6,7.1,0.2 c1.6,0.6,2.9,2.1,2,3.8c-0.7,1.4-2.6,2-4.1,2.5c-9.3,3-17.9,6.4-23.1,14.3c-2,3-4.9,14.4-8.6,12.3C17.5,45.7,18.3,38.5,24,29.7z" opacity="0.3" fill="#E380A1" enable-background="new "/>
</svg>

<svg viewBox="0 0 128 128" xmlns="http://www.w3.org/2000/svg">
  <defs/>
  <path d="M124,64 A60 60 0 1 1 4,64 A60 60 0 1 1 124,64 Z" fill="#C2185B"/>
  <path d="M116.2,63.1 A56.1 56.1 0 1 1 4,63.1 A56.1 56.1 0 1 1 116.2,63.1 Z" fill="#EC407A"/>
  <path d="M24,29.7 C28.5,22.6 38.1,16.7 48.1,14.9 C50.6,14.5 53.1,14.3 55.2,15.1 C56.8,15.7 58.1,17.2 57.2,18.9 C56.5,20.3 54.6,20.9 53.1,21.4 C43.8,24.4 35.2,27.8 30,35.7 C28,38.7 25.1,50.1 21.4,48 C17.5,45.7 18.3,38.5 24,29.7 Z" fill="#E380A1" opacity="0.65"/>
  <path d="M96.6,60 L86,60 C85.4,60 84.9,59.5 85,58.9 C86.1,47.1 90.7,38.9 94.7,36.6 C96,35.9 96.8,34.5 96.8,33 C96.7,30 93.5,28.1 90.9,29.6 C83.6,33.6 78.1,45.1 77,59.1 C76.9,59.6 76.5,60 76,60 L52,60 C51.5,60 51,59.6 51,59.1 C50,45.4 44.6,34.1 37.5,29.9 C34.9,28.3 32,29.3 31.3,32.2 C30.9,34 31.7,35.8 33.2,36.6 C37.2,38.8 41.9,47.1 43,58.9 C43,59.5 42.6,60 42,60 L31.4,60 C29.3,60 27.4,61.5 27.3,63.6 C27,66 28.9,68 31.2,68 L42,68 C42.6,68 43,68.5 43,69.1 C41.9,80.9 37.3,89.1 33.3,91.4 C32,92.1 31.2,93.5 31.2,95 C31.3,98 34.5,99.8 37.1,98.4 C44.4,94.3 49.9,82.9 51,68.9 C51,68.4 51.5,68 52,68 L76,68 C76.5,68 76.9,68.4 77,68.9 C78,82.6 83.4,93.9 90.5,98.1 C93.1,99.7 96,98.8 96.7,95.8 C97.1,94 96.3,92.2 94.8,91.4 C90.8,89.2 86.1,81 85,69.1 C85,68.5 85.4,68 86,68 L96.8,68 C99.1,68 101,66 100.8,63.6 C100.6,61.5 98.7,60 96.6,60 Z" fill="#FAFAFA"/>
  <path d="M24,29.7 C28.5,22.6 38.1,16.7 48.1,14.9 C50.6,14.5 53.1,14.3 55.2,15.1 C56.8,15.7 58.1,17.2 57.2,18.9 C56.5,20.3 54.6,20.9 53.1,21.4 C43.8,24.4 35.2,27.8 30,35.7 C28,38.7 25.1,50.1 21.4,48 C17.5,45.7 18.3,38.5 24,29.7 Z" fill="#E380A1" opacity="0.3"/>
</svg>
